X:105
T:Reels simple chords 188
M:3/4
L:1/8
K:D
(3ABc [d2D,2F,2A,2] d2 | cd ec [d2D,2F,2A,2] | d2 cd ec | [dD,F,A,]e fg a2 | f2 [gG,B,D]f ed |
c2 A2 [d2D,2F,2A,2] | d2 cd ec | [d2D,2F,2A,2] d2 cd | ec [dD,F,A,]e fg |
a2 d2 [cA,CEG]d | ec d2 (3ABc | [d2D,2F,2A,2] d2 cd | ec [d2D,2F,2A,2] d2 |
cd ec [dD,F,A,]e | fg a2 f2 | [gG,B,D]f ed c2 | A2 [d2D,2F,2A,2] d2 |
cd ec [d2D,2F,2A,2] | d2 cd ec | [dD,F,A,]e fg a2 | d2 [cA,CEG]d ec |
d2 fg [aD,F,A,]^g | ab a2 fg | [aD,F,A,]^g ab a2 | f2 [g2G,2B,2D2] eg |
f2 df [eE,G,B,]d | cd e2 fg | [aD,F,A,]^g ab a2 | fg [a=C,E,G,]^g ab |
a2 f2 [g2E,2G,2B,2] | eg f2 df | [e2A,2C2E2G2] c2 d2 | fg [aD,F,A,]^g ab |
a2 fg [aD,F,A,]^g | ab a2 f2 | [g2G,2B,2D2] eg f2 | df [eE,G,B,]d cd |
e2 fg [aD,F,A,]^g | ab a2 fg | [a=C,E,G,]^g ab a2 | f2 [g2E,2G,2B,2] eg |
f2 df [e2A,2C2E2G2] | c2 d2 |


